X: 1
T: Final Cut, The
M: 4/4
L: 1/8
R: reel
K: Emin
B~E3 BAGA |B~E3 FFFA |B~E3 e2 ed |edBG cBAG|
B~E3 BBGA |BEFD FGAF |BcBA FGAd |edBG cBAG|
B~e3 gfed |eBBB EFGA |B~e3 fgaf  |gfed edBd|
e~B3 egfg |eBBB EFGA |B~e3 gfed  |edBG cBAG|
